X:1
T:Rag-O-Rythm
T:Rag-O-Rythm
T:By HARRY JENTES
T:Copyright 1924 by Harry Jentes
T:Copyright 1924 by Harry Jentes
T:Copyright 1924 by Harry Jentes
T:Copyright 1924 by Harry Jentes
C:By HARRY JENTES
Z:Copyright 1924 by Harry Jentes
%%score { ( 1 3 ) | 2 }
L:1/8
Q:1/4=180
M:2/2
K:Eb
V:1 treble nm="Piano" snm="Pno."
V:3 treble 
V:2 bass 
V:1
!ff! (3[ce]=A[ce] !^![=Bd]2 !^![_B_d]2 !^![Ac]2 | (3[ce]=A[ce] !^![=Bd]2 !^![_B_d]2 !^![Ac]2 | %2
 (3[fa]d[fa] [=eg]2 [_e^f] [eg]2 [d=f]- | [df]2 z2 [Bdfb]2 z (c' || %4
!f! [fae']>)c'[fae']>(a c'>)([fe']a>)c' | [egc'e'] [egc'e']2 [egc'e']- [egc'e']3 (c' | %6
 [fae']>)c'[fae']>(a c'>)([fe']a>)(c' | [egc'e']) [egc'e']2 [egc'e']- [egc'e']>c'[^fb]>c' | %8
 b3 a- ac' b2 | [egbe']4- [egbe']>g[^cf]>g | !^!f3 !^!e- eg !^!f2 | [Bdb]4- [Bdb]3 c' | %12
 [fae']>c'[fae']>(a c'>)([fe']a>)c' | [egc'e'] [egc'e']2 [egc'e']- [egc'e']3 c' | %14
 [fae']>c'[fae']>a c'>[fe']a>c' | [egc'e'] [egc'e']2 [egc'e']- [egc'e']>c'[^fb]>c' | %16
 !^!b3 a- ac' b2 | [egbe']4- [egbe']>c'[^fb]>c' | !^!b3 !^!a- ac' !^!b2 | [ege']2 z2 z2 z c' | %20
 [fae']>c'[fae']>(a c'>)([fe']a>)(c' | [egc'e']) [egc'e']2 [egc'e']- [egc'e']3 (c' | %22
 [fae']>)c'[fae']>(a c'>)([fe']a>)(c' | [egc'e']) [egc'e']2 [egc'e']- [egc'e']>c'[^fb]>c' | %24
 !^!b3 !^!a- ac' !^![ab]2 | !^![egbe']4- [egbe']>g[^cf]>g | !^!f3 !^!e- eg !^!f2 | %27
 [Bdb]4- [Bdb]3 (c' | [fae']>)c'[fae']>(a c'>)([fe']a>)c' | %29
 [egc'e'] [egc'e']2 [egc'e']- [egc'e']3 (c' | [fae']>)(c'[fae']>)(a c'>)([fe']a>)(c' | %31
 [egc'e']) [egc'e']2 [egc'e']- [egc'e']>c'[^fb]>c' | b3 a- ac' b2 | [egbe']4- [egbe']>c'[^fb]>c' | %34
 !^!b3 !^!a- ac' !^!b2 | [egbe'] z [GBe]2 [A=Bf]2 [_Beg]2 |: [Aea]>ed>e [Gdg]>d^c>d | %37
 [^Fc^f]>c=B>c [=FB=f]>fg>f | [Beb] [Beb]2 [Beb]- [Beb]4- | [Beb]>e[Gf]>B e [=Af]2 e | %40
 [Adb] [Adb]2 [Adb]- [Adb]4- | [Adb]>b[dc']>a b [dc']2 b | [ebe'] [ebe']2 [ebe']- [ebe']>EF>^F | %43
 G z [GBe]2 [A=Bf]2 [_Beg]2 | [Aea](f/e/ d>e) [Gdg](e/d/ ^c>)d | [^Fc^f]d/c/ =B>c [=FB=f]>fg>f | %46
 [Beb] [Beb]2 [Beb]- [Beb]4- | [Beb]>e[Gf]>B e [=Af]2 e | [Adb] [Adb]2 [Adb]- [Adb]4- | %49
 [Adb]>b[dc']>a b [dc']2 b | [ege']>b[egc']>g b [dac']2 b |1 %51
 [ege'] z !>![GBe]2 !>![A=Bf]2 !>![_Beg]2 :|2 [ege'] z z2 [Bdb]2 z c' || %53
 [fae']>c'[fae']>(a c'>)([fe']a>)c' | [egc'e'] [egc'e']2 [egc'e']- [egc'e']3 (c' | %55
 [fae']>)c'[fae']>(a c'>)([fe']a>)(c' | [egc'e']) [egc'e']2 [egc'e']- [egc'e']>c'[^fb]>c' | %57
 b3 a- ac' b2 | !^![egbe']4- [egbe']>g[^cf]>g | !^!f3 !^!e- eg !^!f2 | [Bdb]4- [Bdb]3 c' | %61
 [fae']>c'[fae']>(a c'>)([fe']a>)c' | [egc'e'] [egc'e']2 [egc'e']- [egc'e']3 c' | %63
 [fae']>c'[fae']>a c'>[fe']a>c' | [egc'e'] [egc'e']2 [egc'e']- [egc'e']>c'[^fb]>c' | %65
 !^!b3 a- ac' b2 | [egbe']4- [egbe']>c'[^fb]>c' | !^!b3 !^!a- ac' !^!b2 | %68
 !^![GBe]4 !^![egbe']2 z2 ||!ff! (3[ce]=A[ce] !^![=Bd]2 !^![_B_d]2 !^![Ac]2 | %70
 (3[ce]=A[ce] !^![=Bd]2 !^![_B_d]2 !^![Ac]2 | (3[fa]d[fa] [=eg]2 [_e^f] [eg]2 [d=f]- | %72
 [df]2 z2 [Bdfb]2 z2 |: [EGBe]2 [GBeg]2 [Adf]2 a>f | [Geg]>g[Beb]>g [Bfa]2 c'>a | %75
 [Bgb]>b [ege']2 [dad']2 [faf']2 | e>gf>e d>fe>c |x>bx>a b>c'x>b | c'>bc'>a b>c'a>b | %79
 [ee']>gb>[dd'] g>b[cc']>b | [ee']>ab>[dd'] a>b[cc']>b | [EGBe]2 [GBeg]2 [Adf]2 a>f | %82
 g>gb>g x2 c'>a | [Bgb]>b [ege']2 [dad']2 [faf']2 | e>gf>e d>fe>c | %85
 d [g=be']2 d [=ac'd']2 d[gbd']- | [gbd']d [g=bc']2 [dg=bd']4 | d' [dg=b]2 d' [d=ac']2 d'[dgb]- | %88
 [dgb]d' [d=ac']2 [dg=bd']2 [d_a_bd']2 | [EGBe]2 [GBeg]2 [Adf]2 a>f | [Geg]>g[Beb]>g [Bfa]2 c'>a | %91
 [Bgb]>b [ege']2 [dad']2 [faf']2 | e>gf>e d>fe>c |x>bx>a b>c' a>b | c'>bc'>a b>c'a>b | %95
 [ee']>gb>[dd'] g>b[cc']>b | [ee']>ab>[dd'] a>b[cc']>b | %97
 [^cg^c']2 [=cg=c']2 [=Bg=b] [cgc']2 [=A_eg]- | g>^fg>f- f>g f>_a | %99
 [=Bf=b]2 [_Bf_b]2 [=A=a] [Bfb]2 e | f=ef_e- ef e>f | [^Aeg]2 [Aef]2 =e [A_ef]3 | %102
 z3/2 b<[dc']a/ b [dac']2 b | [ee']>b[egc']>g b [dac']2 b |1 [ege']2 z2 z4 :|2 %105
 [ee']>b(!^![dac']>b) !^![ege']2 z2 ||"^Coda" (3[ce]=A[ce] [=Bd]2 [_B_d]2 [Ac]2 | %107
 (3[ce]=A[ce] [=Bd]2 [_B_d]2 [Ac]2 | (3[fa]d[fa] [=eg]2 [_e^f] [eg]2 [d=f]- | %109
 [df]>b[dac']>b !^![ege']2 z2 |] %110
V:2
 !^![_G,_G]2 !^![F,F]2 !^![=E,=E]2 !^![_E,_E]2 | !^![_G,_G]2 !^![F,F]2 !^![=E,=E]2 !^![_E,_E]2 | %2
 !^![=B,=B]2 !^![_B,_B]2 !^![=A,=A]2 !^![B,B]2 | [_A,_A]2 !>!B,,,2 [A,B,DF]2 z2 || %4
 !^![A,,A,]2 !^![G,,G,]2 !^![F,,F,]2 !^![^F,,^F,]2 | !^![G,,G,]2 [B,EG]2 [B,,,B,,]2 [B,EG]2 | %6
 !^![A,,A,]2 !^![G,,G,]2 !^![F,,F,]2 !^![^F,,^F,]2 | !^![G,,G,]2 [B,EG]2 [E,,E,]2 [=E,,=E,]2 | %8
 [F,,F,]2 [B,DFA]2 [A,,A,]2 [A,B,DF]2 | [G,,G,]2 [B,EG]2 [C,,C,]2 [B,,,B,,]2 | %10
 [=A,,,=A,,]2 [CEF=A]2 [E,,E,]2 [F,=A,CE]2 | [D,,D,]2 [A,B,DF]2 [B,,,B,,]2 [A,B,DF]2 | %12
 !^![A,,A,]2 !^![G,,G,]2 !^![F,,F,]2 !^![^F,,^F,]2 | !^![G,,G,]2 [B,EG]2 [B,,,B,,]2 [B,EG]2 | %14
 !^![A,,A,]2 !^![G,,G,]2 !^![F,,F,]2 !^![^F,,^F,]2 | !^![G,,G,]2 [B,EG]2 [E,,E,]2 [=E,,=E,]2 | %16
 !^![F,,F,]2 [B,DFA]2 [A,,A,]2 [A,B,DF]2 | [G,,G,]2 [B,EG]2 [E,,E,]2 [=E,,=E,]2 | %18
 [F,,F,]2 [B,DFA]2 [A,,A,]2 [A,B,DF]2 | [G,,G,]2 [B,EG]2 [B,,,B,,]2 [B,EG]2 | %20
 !arpeggio!!^![A,,A,]2 !arpeggio!!^![G,,G,]2 !arpeggio!!^![F,,F,]2 !arpeggio!!^![^F,,^F,]2 | %21
 !arpeggio!!^![G,,G,]2 [B,EG]2 [B,,,B,,]2 [B,EG]2 | %22
 !arpeggio!!^![A,,A,]2 !arpeggio!!^![G,,G,]2 !arpeggio!!^![F,,F,]2 !arpeggio!!^![^F,,^F,]2 | %23
 !arpeggio!!^![G,,G,]2 [B,EG]2 !^![E,,E,]2 !^![=E,,=E,]2 | [F,,F,]2 [B,DFA]2 [A,,A,]2 [A,B,DF]2 | %25
 [G,,G,]2 [B,EG]2 !^![C,,C,]2 !^![B,,,B,,]2 | !^![=A,,,=A,,]2 [CEF=A]2 [E,,E,]2 [F,=A,CE]2 | %27
 [D,,D,]2 [A,B,DF]2 [B,,,B,,]2 [A,B,DF]2 | %28
 !arpeggio!!^![A,,A,]2 !arpeggio!!^![G,,G,]2 !arpeggio!!^![F,,F,]2 !arpeggio!!^![^F,,^F,]2 | %29
 !arpeggio!!^![G,,G,]2 [B,EG]2 [B,,,B,,]2 [B,EG]2 | %30
 !^![A,,A,]2 !^![G,,G,]2 !^![F,,F,]2 !^![^F,,^F,]2 | %31
 !^![G,,G,]2 [B,EG]2 !^![E,,E,]2 !^![=E,,=E,]2 | [F,,F,]2 [B,DFA]2 [A,,A,]2 [A,B,DF]2 | %33
 [G,,G,]2 [B,EG]2 [E,,E,]2 [=E,,=E,]2 | [F,,F,]2 [B,DFA]2 [A,,A,]2 [A,B,DF]2 | %35
 !arpeggio![E,,B,,G,] z [G,,G,]2 [A,,A,]2 [B,,B,]2 |: [=B,,=B,]2 z2 [_B,,_B,]2 z2 | %37
 [=A,,=A,]2 z2 [_A,,_A,]2 z2 | [G,,G,]2 [B,EG]2 [E,,E,]>B,,C,>D, | %39
 E,2 [G,B,E]2 [_G,,_G,]2 [G,=A,CE]2 | [F,,F,]2 [A,B,DF]2 [B,,,B,,]>D,E,>=E, | %41
 F,2 [B,DFA]2 [F,,F,]2 [^F,,^F,]2 | [G,,G,]2 [B,EG]2 [E,,E,]>G,A,>=A, | %43
 B, z{/G,,} G,2{/A,,} A,2{/B,,} B,2 | [=B,,=B,]2 z2 [_B,,_B,]2 z2 | [=A,,=A,]2 z2 [_A,,_A,]2 z2 | %46
 [G,,G,]2 [B,EG]2 [E,,E,]>B,,C,>D, | E,2 [G,B,E]2 [_G,,_G,]2 [G,=A,CE]2 | %48
 [F,,F,]2 [A,B,DF]2 [B,,,B,,]>D,E,>=E, | F,2 [A,B,DF]2 [F,,F,]2 [A,B,DF]2 | %50
 [E,,E,]2 [G,B,E]2 [B,,,B,,]2 [A,B,DF]2 |1 [E,,E,] z !>![G,,G,]2 !>![A,,A,]2 !>![B,,B,]2 :|2 %52
 [E,,E,]2 B,,,2 [A,B,DF]2 z2 || !^![A,,A,]2 !^![G,,G,]2 !^![F,,F,]2 !^![^F,,^F,]2 | %54
 !^![G,,G,]2 [B,EG]2 [B,,,B,,]2 [B,EG]2 | !^![A,,A,]2 !^![G,,G,]2 !^![F,,F,]2 !^![^F,,^F,]2 | %56
 !^![G,,G,]2 [B,EG]2 [E,,E,]2 [=E,,=E,]2 | [F,,F,]2 [B,DFA]2 [A,,A,]2 [A,B,DF]2 | %58
 [G,,G,]2 [B,EG]2 !^![C,,C,]2 !^![B,,,B,,]2 | !^![=A,,,=A,,]2 [CEF=A]2 [E,,E,]2 [F,=A,CE]2 | %60
 [D,,D,]2 [A,B,DF]2 [B,,,B,,]2 [A,B,DF]2 | %61
 !arpeggio!!^![A,,A,]2 !arpeggio!!^![G,,G,]2 !arpeggio!!^![F,,F,]2 !arpeggio!!^![^F,,^F,]2 | %62
 !arpeggio!!^![G,,G,]2 [B,EG]2 [B,,,B,,]2 [B,EG]2 | %63
 !arpeggio!!^![A,,A,]2 !arpeggio!!^![G,,G,]2 !arpeggio!!^![F,,F,]2 !arpeggio!!^![^F,,^F,]2 | %64
 !arpeggio!!^![G,,G,]2 [B,EG]2 !^![E,,E,]2 !^![=E,,=E,]2 | %65
 !^![F,,F,]2 [B,DFA]2 [A,,A,]2 [A,B,DF]2 | [G,,G,]2 [B,EG]2 !^![E,,E,]2 !^![=E,,=E,]2 | %67
 [F,,F,]2 [B,DFA]2 [A,,A,]2 [A,B,DF]2 | !^![E,,E,]2 !^!B,,2- !^![E,,B,,G,]2 z2 || %69
 !^![_G,_G]2 !^![F,F]2 !^![=E,=E]2 !^![_E,_E]2 | !^![_G,_G]2 !^![F,F]2 !^![=E,=E]2 !^![_E,_E]2 | %71
 !^![=B,=B]2 !^![_B,_B]2 !^![=A,=A]2 !^![B,B]2 | [_A,_A]2 !>!B,,,2 [A,B,DF]2 z2 |: %73
 [E,,E,]2 [G,B,E]2 [B,,,B,,]2 [A,B,DF]2 | [E,,E,]2 [G,B,E]2 [B,,,B,,]2 [B,DF]2 | %75
 [G,,G,]2 [B,EG]2 [B,,,B,,]2 [B,FA]2 | !arpeggio![G,EB]2 z2 z2 !arpeggio![^F,=A]2 | %77
 !arpeggio![=F,_A]2 [B,DFA]2 [B,,,B,,]2 [B,DF]2 | [F,,F,]2 [A,B,DF]2 [F,,F,]2 [^F,,^F,]2 | %79
 !arpeggio![E,,B,,G,]2 [B,EG]2 [B,,,B,,]2 [G,B,E]2 | [F,,F,]2 [B,DFA]2 [B,,,B,,]2 [B,DFA]2 | %81
 [E,,E,]2 [G,B,E]2 [B,,,B,,]2 [A,B,DF]2 | [E,,E,]2 [G,B,E]2 [B,,,B,,]2 [B,DF]2 | %83
 [G,,G,]2 [B,EG]2 [B,,,B,,]2 [B,FA]2 | !arpeggio![G,EB]2 z2 z2 !arpeggio![^F,=A]2 | %85
 [=B,,=B,]2 [B,DG]2 [=A,,=A,]2 [A,CD^F]2 | [G,,G,]2 [=A,,=A,]2 [=B,,=B,]2 [B,DG]2 | %87
 [=B,,=B,]2 [B,DG]2 [=A,,=A,]2 [A,CD^F]2 | [=B,,=B,]2 [=A,,=A,]2 [G,,G,]2 !arpeggio![F,,A,]2 | %89
 [E,,E,]2 [G,B,E]2 [B,,,B,,]2 [A,B,DF]2 | [E,,E,]2 [G,B,E]2 [B,,,B,,]2 [B,DF]2 | %91
 [G,,G,]2 [B,EG]2 [B,,,B,,]2 [B,FA]2 | !arpeggio![G,EB]2 z2 z2 !arpeggio![^F,=A]2 | %93
 !arpeggio![=F,_A]2 [B,DFA]2 [B,,,B,,]2 [B,DF]2 | [F,,F,]2 [A,B,DF]2 [F,,F,]2 [^F,,^F,]2 | %95
 !arpeggio![E,,B,,G,]2 [B,EG]2 [B,,,B,,]2 [G,B,E]2 | [F,,F,]2 [B,DFA]2 [B,,,B,,]2 [B,DFA]2 | %97
 [=E,,=E,]2 [G,B,C=E]2 [B,,,B,,]2 [G,B,CE]2 | [F,,F,]2 [_F,,_F,]2 [E,,E,]2 [=A,CEF]2 | %99
 [D,,D,]2 [_A,B,DF]2 [A,,,A,,]2 [A,B,DF]2 | [B,,,B,,]2 [=B,,,=B,,]2 [C,,C,]2 [_B,,,_B,,]2 | %101
 [=A,,,=A,,]2 [F,=A,CE]2 [=A,,=A,]2 [F,A,CE]2 | [_A,,_A,]2 [B,DFA]2 [F,,F,]2 [^F,,^F,]2 | %103
 [G,,G,]2 [B,EG]2 [A,,A,]2 [A,B,DF]2 |1 [E,,E,]2 [B,EG]2 [B,,,B,,]2 [B,EG]2 :|2 %105
 !arpeggio!!^![E,,B,,G,]2 !arpeggio!!^![F,,A,]2"^D.C. ad lib" !arpeggio!!^![E,,B,,G,]2 z2 || %106
 [_G,_G]2 [F,F]2 [=E,=E]2 [_E,_E]2 | [_G,_G]2 [F,F]2 [=E,=E]2 [_E,_E]2 | %108
 [=B,=B]2 [_B,_B]2 [=A,=A]2 [B,B]2 | %109
 [_A,_A]2 !arpeggio!!^![B,,F,D]2 !arpeggio!!^![E,B,E]2"^Fine" z2 |] %110
V:3
 x8 | x8 | x8 | x8 || x8 | x8 | x8 | x8 | g2 =ef- f2 [da]2 | x8 | d2 =Bc- c2 [=Ae]2 | x8 | x8 | %13
 x8 | x8 | x8 | g2 =ef- f2 [da]2 | x8 | g2 =ef- f2 [da]2 | x8 | x8 | x8 | x8 | x8 | g2 =ef- f2 d2 | %25
 x8 | d2 =Bc- c2 [=Ae]2 | x8 | x8 | x8 | x8 | x8 | g2 =ef- f2 [da]2 | x8 | g2 =ef- f2 [da]2 | x8 |: %36
 x8 | x8 | x8 | x8 | x8 | x8 | x8 | x8 | x8 | x8 | x8 | x8 | x8 | x8 | x8 |1 x8 :|2 x8 || x8 | x8 | %55
 x8 | x8 | g2 =ef- f2 [da]2 | x8 | d2 =Bc- c2 [=Ae]2 | x8 | x8 | x8 | x8 | x8 | g2 =ef- f2 [da]2 | %66
 x8 | g2 =ef- f2 [da]2 | x8 || x8 | x8 | x8 | x8 |: x6 [Ad]2 | x6 d2 | x8 | x8 | %77
 d x e z z x/ =e/ ax/b/ | f z d z z x/ =e/ z2 | x8 | x8 | x6 [Ad]2 | [Ge]2 [Be]2 [Bfa]2 d2 | x8 | %84
 x8 | x8 | x8 | x8 | x8 | x6 [Ad]2 | x6 d2 | x8 | x8 | d x e z z x/ =e/ z2 | f z d z z x/ =e/ z2 | %95
 x8 | x8 | x8 | [Ae]3 x/ [=Ae]/- [Ae]2 [Ae]2 | x8 | [Ad] z [Ad][Gc]- [Gc]2 [Gc]2 | x8 | x8 | x8 |1 %104
 x8 :|2 x8 || x8 | x8 | x8 | x8 |] %110

